assets/Backhand index pointing right/Medium/Flat/backhand_index_pointing_right_flat_medium.svg

<svg width="32" height="32" viewBox="0 0 32 32" fill="none" xmlns="http://www.w3.org/2000/svg">
<path d="M7.68749 11.4375C11.9032 9.71134 13.5625 5.87497 14.4687 4.99996C15.375 4.12496 17.0629 4.02675 18.0987 4.99996C19.4375 6.25778 18.9635 7.41273 18.0625 8.93746C17.7578 9.45309 16.7344 11.0312 16.7344 11.0312H26.9687C29.0781 11.0312 30.01 12.56 30.01 13.72C30.01 14.88 28.8437 16.2656 26.9687 16.2656H23.0312C23.0312 16.2656 24.3125 16.7674 24.3125 18.5643C24.3125 20.3612 22.6875 20.875 22.6875 20.875C22.6875 20.875 23.4844 21.3906 23.4844 23.0625C23.4844 24.6406 21.8906 25.3437 21.8906 25.3437C21.8906 25.3437 22.4375 25.9843 22.4375 27.3906C22.4375 28.4687 21.0312 29.9843 19.3906 29.9843C12.3001 29.9843 2.01 29.4232 2.01 20.03C2 17.54 3.47176 13.1636 7.68749 11.4375Z" fill="#C68D7B"/>
<path d="M23.0468 16.2655C19.9663 16.058 18.1875 15.4218 17.6875 14.9999H26.0625C28.2792 14.9999 29.529 14.5201 29.9697 14.1021C29.7495 15.1634 28.641 16.2656 26.9687 16.2656L23.0468 16.2655Z" fill="#A9715F"/>
<path d="M22.6876 20.8749H19.5C19.2238 20.8749 19 20.6511 19 20.3749C19 20.0988 19.2238 19.8749 19.5 19.8749H23.9495C23.4736 20.6226 22.6975 20.8718 22.6876 20.8749Z" fill="#A9715F"/>
<path d="M18.3125 25.3437H21.8907C21.8987 25.3401 22.6097 25.0238 23.0792 24.3437H18.3125C18.0363 24.3437 17.8125 24.5675 17.8125 24.8437C17.8125 25.1198 18.0363 25.3437 18.3125 25.3437Z" fill="#A9715F"/>
</svg>

<svg xmlns="http://www.w3.org/2000/svg" width="32" height="32" fill="none"><path fill="#C68D7B" d="M7.687 11.438C11.903 9.71 13.562 5.875 14.47 5c.906-.875 2.594-.973 3.63 0 1.338 1.258.864 2.413-.037 3.937-.304.516-1.328 2.094-1.328 2.094H26.97c2.11 0 3.041 1.529 3.041 2.689 0 1.16-1.166 2.546-3.041 2.546H23.03s1.282.501 1.282 2.298c0 1.797-1.625 2.311-1.625 2.311s.796.516.796 2.188c0 1.578-1.593 2.28-1.593 2.28s.547.641.547 2.048c0 1.078-1.407 2.593-3.047 2.593-7.09 0-17.381-.56-17.381-9.954-.01-2.49 1.462-6.866 5.677-8.593Z"/><path fill="#A9715F" d="M23.047 16.265c-3.08-.207-4.86-.843-5.36-1.265h8.375c2.217 0 3.467-.48 3.908-.898-.22 1.061-1.329 2.164-3.001 2.164h-3.922ZM22.688 20.875H19.5a.5.5 0 1 1 0-1h4.45a2.575 2.575 0 0 1-1.262 1ZM18.313 25.344h3.578c.008-.004.719-.32 1.188-1h-4.767a.5.5 0 1 0 0 1Z"/></svg>
